X: 25128
T: Mairi's Wedding
R: polka
M: 2/4
K: Ddorian
|:D>D DE|GA Bc/B/|AG E>G|BA Bd|
D>D DE|GA Bc/B/|AG EC|D2 D2:|
|:d>^c de|dc Bc/B/|AG E>G|BA Bd|
d>^c de|dc Bc/B/|AG EC|D2 D2:|

